src/assets/VerticalMenuButtons.svg

<svg fill="none" height="20" viewBox="0 0 20 20" width="20" xmlns="http://www.w3.org/2000/svg"><path clip-rule="evenodd" d="m10.5 14c.8284 0 1.5.6716 1.5 1.5s-.6716 1.5-1.5 1.5c-.82843 0-1.5-.6716-1.5-1.5s.67157-1.5 1.5-1.5zm0-5.83334c.8284 0 1.5.67157 1.5 1.5 0 .82844-.6716 1.50004-1.5 1.50004-.82843 0-1.5-.6716-1.5-1.50004 0-.82843.67157-1.5 1.5-1.5zm1.5-4.33333c0-.82843-.6716-1.5-1.5-1.5-.82843 0-1.5.67157-1.5 1.5s.67157 1.5 1.5 1.5c.8284 0 1.5-.67157 1.5-1.5z" fill="#666f7d" fill-rule="evenodd"/></svg>

<svg width="20" height="20" viewBox="0 0 20 20" fill="none" xmlns="http://www.w3.org/2000/svg">
<path fill-rule="evenodd" clip-rule="evenodd" d="M10.5 14C11.3284 14 12 14.6716 12 15.5C12 16.3284 11.3284 17 10.5 17C9.67157 17 9 16.3284 9 15.5C9 14.6716 9.67157 14 10.5 14ZM10.5 8.16666C11.3284 8.16666 12 8.83823 12 9.66666C12 10.4951 11.3284 11.1667 10.5 11.1667C9.67157 11.1667 9 10.4951 9 9.66666C9 8.83823 9.67157 8.16666 10.5 8.16666ZM12 3.83333C12 3.0049 11.3284 2.33333 10.5 2.33333C9.67157 2.33333 9 3.0049 9 3.83333C9 4.66176 9.67157 5.33333 10.5 5.33333C11.3284 5.33333 12 4.66176 12 3.83333Z" fill="#666F7D"/>
</svg>
